X: 1
T: Paddy Fahy's
S: Brid Harper &amp; Dermot Byrne
M: 4/4
L: 1/8
R: reel
K: Gdor (or Fmaj depending on how you look at it)
fedg fdcA|F2AF CFAc|fedg fdcA|FGAc dG~G2|
fedg fdcA|F2AF CFAc|agfa g2fd|c2Ac dG~G2:|
|:B2Gd BGEG|FcAF CFAc|B2Gd BGEG|FDCA, DG,~G,2|
B2Gd BGEG|FcAF CFAc|agfa g2fd|c2Ac dG~G2:|
